X: 23643
T: Limerick Lasses, The
R: reel
M: 4/4
K: Dmajor
|:dBAF DEFD|G3A BE E2|dBAF DEFD|GBAG FDD2:|
|:dcde f3e|dfed cA A2|(3Bcd ef g2ag|faea fddA:|
|:BdAd BdAd|(3Bcd ef gfed|BdAd (3Bcd eg|faea fd d2:|

